X: 1
T: Berkeley Reel    [Bm]
C: Larry Unger
R: reel
Z: 2018 John Chambers <jc:trillian.mit.edu>
M: C|
L: 1/8
K: Bm
|:\
"Bm"Bffe fgfe | "G"dBBA "A"ABcA | "Bm"Bffe fgfe | "G"dBAF "F#m"A2FA |
"Bm"Bffe fgfe | "G"dBBA "A"ABcA | "G"B2dB "D"AFED | "Em"EFED "G"B,2D2 :|
|:\
"Em"EDB,D E2DE | "F#m"FAAB AFED | "G"EDEF EDB,D | EDB,D "A"A,4 |
% %vskip 2
[1 "Em"EDB,D E2DE | "F#m"FAAB AFED | "G"EDEF EDB,D | "A"FABA "Bm"B4 :|
[2 "Em"EDB,D E2DE | "F#m"FAAB AFED | "Em"EFGE "F#m"FGAc | "G"Bcde "A"fedc |]
